X:1
T:Title
%%score { ( 1 3 ) | ( 2 4 ) }
L:1/8
Q:1/4=162
M:6/4
K:Ab
V:1 treble nm="Grand Piano"
V:3 treble 
V:2 bass 
V:4 bass 
V:1
 [Ec]2 [Fd]2 [Ec]2 B2 c2 B2 | [CA]2 [EG]2 [DF]2 [CE]6 | [A,DF]2 [A,EG]2 [A,FA]2 [A,E]2 [A,EA]2 B2 | %3
w: Chas.~H.~Gabriel * * * * *|||
 c2 B2 A2 B6 | c2 d2 c2 B2 c2 B2 | A2 B2 [_GA]2 [Fd]6 | c2 e2 d2 c2 B2 A2 | G2 A2 B2 [CA]6 | %8
w: |||||
 B6 e6 | c6 e6 | f4 e2 c4 A2 | e12 | e2 f2 e2 e2 c2 B2 | A2 B2 [_GA]2 [Fd]6 | %14
w: ||||||
 [Ec]2 [Ae]4 [Ec]4 [DB]2 | [CA]12 |] %16
w: ||
V:2
 [A,,A,]2 [A,,A,]2 [A,,A,]2 [E,G,D]2 [E,G,E]2 [E,G,D]2 | [A,,A,]2 [A,,A,]2 [A,,A,]2 [A,,A,]6 | %2
 D,2 D,2 D,2 C,2 C,2 [E,G,E]2 | [A,E]2 [G,B,E]2 [F,B,=D]2 [E,G,E]6 | %4
 [A,E]2 [A,F]2[K:bass] [A,E]2 [E,G,D]2 [E,G,E]2 [E,G,D]2 | [F,A,C]2 [F,A,C]2 [E,C]2 [D,A,]6 | %6
 [E,A,E]2 [E,CE]2 [E,B,E]2 [E,A,E]2 [E,DE]2 [E,CE]2 | [E,B,D]2 [E,A,C]2 [E,G,D]2 [A,,A,]6 | %8
 .[G,E]6 E6 | z6 .E6[K:treble] | [DA]4 [CEA]2 [A,EA]4 [A,CE]2 | E,2- [E,-B,]2 [E,-C]2 [E,D]6 | %12
 [A,CA]2 [A,DA]2 [A,CA]2 [A,CA]2 [A,E]2[K:bass] [E,G,D]2 | [F,A,C]2 [F,A,C]2 [E,C]2 [D,A,]6 | %14
 [E,A,]2 [E,C]4 [E,A,]4 [E,G,]2 | [A,,A,]12 |] %16
V:3
 x12 | x12 | x12 | x12 | x12 | x12 | x12 | x12 | z2 G2 F2 z2 A,2 B,2 | z2 A2 F2 z2 D2 E2 | x12 | %11
 G2 G2 A2 B6 | x12 | x12 | x12 | x12 |] %16
V:4
 x12 | x12 | x12 | x12 | x4[K:bass] x8 | x12 | x12 | x12 | E,2- [E,-B,]2 [E,A,]2 [E,G,]2 F,2 G,2 | %9
 .[A,E]6 [A,C]2 B,2[K:treble] C2 | x12 | .B,6 z6 | x10[K:bass] x2 | x12 | x12 | x12 |] %16

